Newaita-dark/apps/24/netflix.svg

<svg height="24" viewBox="0 0 24 24" width="24" xmlns="http://www.w3.org/2000/svg" xmlns:xlink="http://www.w3.org/1999/xlink"><linearGradient id="a" gradientUnits="userSpaceOnUse" x1="11.90739" x2="11.90739" y1="21.02545225" y2="22.01773525002"><stop offset="0" stop-opacity=".27451"/><stop offset="1" stop-opacity="0"/></linearGradient><linearGradient id="b"><stop offset="0" stop-opacity=".313726"/><stop offset=".222222" stop-opacity=".27451"/><stop offset="1" stop-opacity="0"/></linearGradient><radialGradient id="c" cx="450.908936" cy="189.579361" gradientTransform="matrix(.00000013 -.0585994 -.105479 -.00000008 39.097986 47.696499)" gradientUnits="userSpaceOnUse" r="21.166656" xlink:href="#b"/><radialGradient id="d" cx="450.908936" cy="189.579361" gradientTransform="matrix(-.00000013 .0585994 .105479 .00000008 -15.28321 -5.645609)" gradientUnits="userSpaceOnUse" r="21.166656" xlink:href="#b"/><radialGradient id="e" cx="450.908936" cy="189.579361" gradientTransform="matrix(-.00000013 -.0585994 .105479 -.00000008 -15.28321 47.696499)" gradientUnits="userSpaceOnUse" r="21.166656" xlink:href="#b"/><radialGradient id="f" cx="450.908936" cy="189.579361" gradientTransform="matrix(.00000013 .0585994 -.105479 .00000008 39.097985 -5.64561)" gradientUnits="userSpaceOnUse" r="21.166656" xlink:href="#b"/><linearGradient id="g" gradientUnits="userSpaceOnUse" x1="7.93826174998" x2="7.93826174998" y1="21.02545025" y2="2.17207850005"><stop offset="0" stop-color="#424242"/><stop offset="1" stop-color="#616161"/></linearGradient><linearGradient id="h"><stop offset="0" stop-color="#f44336"/><stop offset="1" stop-color="#ef5350"/></linearGradient><linearGradient id="i" gradientUnits="userSpaceOnUse" x1="720.00011449082" x2="720.00011449082" xlink:href="#h" y1="1415.11822549082" y2="455.11808325459"/><linearGradient id="j" gradientUnits="userSpaceOnUse" x1="15.38037862502" x2="15.38037862502" xlink:href="#h" y1="17.55246087502" y2="5.64506749999"/><linearGradient id="k" gradientUnits="userSpaceOnUse" x1="15.87652349995" x2="15.87652349995" y1="17.55246087502" y2="5.64506749999"><stop offset="0" stop-color="#e57373"/><stop offset="1" stop-color="#ef9a9a"/></linearGradient><path d="m4.464844 20.953125h14.882812v1.101563h-14.882812zm0 0" fill="url(#a)"/><path d="m19.347656 21.027344h1.988282v-.996094h-1.988282zm0 0" fill="url(#c)"/><path d="m4.464844 21.027344h-1.984375v.992187h1.984375zm0 0" fill="url(#d)"/><path d="m4.464844 21.027344h-1.984375v-.996094h1.984375zm0 0" fill="url(#e)"/><path d="m19.347656 21.027344h1.988282v.992187h-1.988282zm0 0" fill="url(#f)"/><path d="m3.472656 2.171875h16.867188c.550781 0 .996094.445313.996094.992187v16.867188c0 .550781-.445313.996094-.996094.996094h-16.867188c-.546875 0-.992187-.445313-.992187-.996094v-16.867188c0-.546874.445312-.992187.992187-.992187zm0 0" fill="url(#g)"/><path d="m3.472656 2.171875c-.550781 0-.992187.441406-.992187.992187v.125c0-.550781.441406-.992187.992187-.992187h16.867188c.550781 0 .996094.441406.996094.992187v-.125c0-.550781-.445313-.992187-.996094-.992187zm0 0" fill="#e6e6e6" fill-opacity=".392157"/><path d="m3.472656 21.027344c-.550781 0-.992187-.445313-.992187-.996094v-.121094c0 .546875.441406.992188.992187.992188h16.867188c.550781 0 .996094-.445313.996094-.992188v.121094c0 .550781-.445313.996094-.996094.996094zm0 0" fill-opacity=".196078"/><path d="m74.076259-168.671091h359.798975c11.748878 0 21.247971 9.499093 21.247971 21.164646v359.798974c0 11.748878-9.499093 21.247971-21.247971 21.247971h-359.798975c-11.665552 0-21.164645-9.499093-21.164645-21.247971v-359.798974c0-11.665553 9.499093-21.164646 21.164645-21.164646zm0 0" fill="none" stroke="#212121" stroke-linecap="round" stroke-width="3" transform="matrix(.0468795 0 0 .0468795 0 10.079087)"/><path d="m599.94274 455.074677v959.908383h1.259722c62.986115-26.454168 129.436465-45.979863 198.721191-58.262155v-901.646228zm0 0" fill="url(#i)" stroke="#212121" stroke-width="11.338583" transform="scale(.0124035)"/><path d="m13.890625 5.644531v11.183594c.859375.152344 1.6875.394531 2.464844.722656h.015625v-11.90625zm0 0" fill="url(#j)"/><path d="m13.890625 5.707031v.25h2.480469v-.25zm0 0" fill="#fff" fill-opacity=".392157"/><path d="m1119.893114 455.074677v901.646228c69.284726 12.282292 136.050008 31.807987 198.721191 58.262155h1.259723v-959.908383zm0 0" fill="none" stroke="#212121" stroke-width="11.338583" transform="scale(.0124035)"/><path d="m7.441406 5.644531 6.023438 11.117188c1.011718.136719 1.984375.40625 2.890625.789062h.015625l-6.449219-11.90625zm0 0" fill="url(#k)"/><path d="m7.441406 5.71875.136719.25h2.34375l6.28125 11.59375c.050781.019531.101563.042969.152344.0625h.015625l-6.449219-11.90625zm0 0" fill="#fff" fill-opacity=".392157"/><path d="m9.921875 10.226562v.347657l3.542969 6.539062c.148437.019531.296875.042969.441406.070313.046875.007812.09375.015625.136719.023437.007812.003907.019531.003907.027343.007813.042969.007812.089844.015625.132813.023437.003906 0 .007813.003907.011719.003907.050781.007812.097656.019531.144531.03125.007813 0 .011719 0 .019531.003906.046875.007812.09375.019531.140625.03125.007813 0 .015625.003906.023438.003906.046875.011719.09375.023438.140625.035156h.007812c.046875.011719.09375.023438.140625.039063.007813 0 .011719 0 .015625.003906.046875.011719.09375.023437.140625.035156.007813.003907.015625.003907.019531.007813.046876.011718.09375.027344.140626.039062.003906 0 .011718.003906.015624.003906.050782.015626.097657.03125.144532.042969.046875.015625.09375.03125.136718.046875.007813 0 .015626.003906.023438.007813.042969.011719.089844.027343.132812.042969.007813.003906.015626.003906.027344.007812.042969.015625.085938.03125.128906.046875.007813 0 .011719.003906.015626.003906.042968.015625.085937.03125.128906.046875.007812.003906.011718.003906.015625.007813.042969.015625.085937.03125.132812.050781.007813 0 .015625.003906.023438.007812.042969.015626.085937.03125.128906.050782.007813.003906.015625.003906.023437.007812.042969.019532.085938.039063.128907.054688h.015625v-.351563h-.015625c-.042969-.015625-.085938-.035156-.128907-.054687-.007812 0-.015624-.003906-.023437-.007813-.042969-.015625-.085937-.035156-.128906-.050781-.007813-.003906-.015625-.007812-.023438-.007812-.046875-.019532-.089843-.035157-.132812-.050782-.003907-.003906-.007813-.003906-.015625-.007812-.042969-.015625-.085938-.03125-.128906-.046875-.003907 0-.007813-.003907-.015626-.003907-.042968-.015624-.085937-.03125-.128906-.046874-.011718-.003907-.019531-.003907-.027344-.007813-.042968-.015625-.089843-.03125-.132812-.042969-.007812-.003906-.015625-.007812-.023438-.007812-.042968-.015625-.089843-.03125-.136718-.046875-.046875-.011719-.09375-.027344-.144532-.039063-.003906-.003906-.011718-.003906-.015624-.007812-.046876-.011719-.09375-.027344-.140626-.039063-.003906-.003906-.011718-.003906-.019531-.007812-.046875-.011719-.09375-.023438-.140625-.035157-.003906-.003906-.007812-.003906-.015625-.003906-.046875-.011718-.09375-.023437-.140625-.035156 0-.003906-.003906-.003906-.007812-.003906-.046875-.011719-.09375-.023438-.140625-.035156-.007813 0-.015625-.003907-.023438-.003907-.046875-.011719-.09375-.023437-.140625-.03125-.007812-.003906-.011718-.003906-.019531-.003906-.046875-.011719-.09375-.023437-.144531-.03125-.003906 0-.007813-.003906-.011719-.003906-.042969-.007813-.089844-.015625-.132813-.023438-.007812-.003906-.019531-.003906-.027343-.007812-.042969-.007813-.089844-.015625-.136719-.023438-.144531-.027343-.292969-.046875-.441406-.070312zm0 6.601563c-.859375.152344-1.683594.394531-2.464844.722656h-.015625v.351563h.015625c.78125-.328125 1.605469-.574219 2.464844-.722656zm0 0" fill-opacity=".235294"/><path d="m599.94274 455.074677 485.622942 896.292408c81.567018 11.02257 159.984731 32.752779 233.048623 63.615975h1.259723l-519.950375-959.908383zm0 0" fill="none" stroke="#212121" stroke-width="11.338583" transform="scale(.0124035)"/></svg>

<?xml version="1.0" encoding="UTF-8"?>
<svg xmlns="http://www.w3.org/2000/svg" xmlns:xlink="http://www.w3.org/1999/xlink" width="24px" height="24px" viewBox="0 0 24 24" version="1.1">
<defs>
<linearGradient id="linear0" gradientUnits="userSpaceOnUse" x1="254" y1="233.5" x2="254" y2="254.666672" gradientTransform="matrix(0.0468795,0,0,0.0468795,-0.0000028613,10.079089)">
<stop offset="0" style="stop-color:rgb(0%,0%,0%);stop-opacity:0.27451;"/>
<stop offset="1" style="stop-color:rgb(0%,0%,0%);stop-opacity:0;"/>
</linearGradient>
<radialGradient id="radial0" gradientUnits="userSpaceOnUse" cx="450.908936" cy="189.579361" fx="450.908936" fy="189.579361" r="21.166656" gradientTransform="matrix(0.000000130628,-0.0585994,-0.105479,-0.0000000761539,39.097986,47.696499)">
<stop offset="0" style="stop-color:rgb(0%,0%,0%);stop-opacity:0.313726;"/>
<stop offset="0.222222" style="stop-color:rgb(0%,0%,0%);stop-opacity:0.27451;"/>
<stop offset="1" style="stop-color:rgb(0%,0%,0%);stop-opacity:0;"/>
</radialGradient>
<radialGradient id="radial1" gradientUnits="userSpaceOnUse" cx="450.908936" cy="189.579361" fx="450.908936" fy="189.579361" r="21.166656" gradientTransform="matrix(-0.000000130628,0.0585994,0.105479,0.0000000761539,-15.28321,-5.645609)">
<stop offset="0" style="stop-color:rgb(0%,0%,0%);stop-opacity:0.313726;"/>
<stop offset="0.222222" style="stop-color:rgb(0%,0%,0%);stop-opacity:0.27451;"/>
<stop offset="1" style="stop-color:rgb(0%,0%,0%);stop-opacity:0;"/>
</radialGradient>
<radialGradient id="radial2" gradientUnits="userSpaceOnUse" cx="450.908936" cy="189.579361" fx="450.908936" fy="189.579361" r="21.166656" gradientTransform="matrix(-0.000000130628,-0.0585994,0.105479,-0.0000000761539,-15.28321,47.696499)">
<stop offset="0" style="stop-color:rgb(0%,0%,0%);stop-opacity:0.313726;"/>
<stop offset="0.222222" style="stop-color:rgb(0%,0%,0%);stop-opacity:0.27451;"/>
<stop offset="1" style="stop-color:rgb(0%,0%,0%);stop-opacity:0;"/>
</radialGradient>
<radialGradient id="radial3" gradientUnits="userSpaceOnUse" cx="450.908936" cy="189.579361" fx="450.908936" fy="189.579361" r="21.166656" gradientTransform="matrix(0.000000130628,0.0585994,-0.105479,0.0000000761539,39.097985,-5.64561)">
<stop offset="0" style="stop-color:rgb(0%,0%,0%);stop-opacity:0.313726;"/>
<stop offset="0.222222" style="stop-color:rgb(0%,0%,0%);stop-opacity:0.27451;"/>
<stop offset="1" style="stop-color:rgb(0%,0%,0%);stop-opacity:0;"/>
</radialGradient>
<linearGradient id="linear1" gradientUnits="userSpaceOnUse" x1="169.333328" y1="233.5" x2="169.333328" y2="-168.666656" gradientTransform="matrix(0.0468795,0,0,0.0468795,0,10.079087)">
<stop offset="0" style="stop-color:rgb(25.882354%,25.882354%,25.882354%);stop-opacity:1;"/>
<stop offset="1" style="stop-color:rgb(38.039216%,38.039216%,38.039216%);stop-opacity:1;"/>
</linearGradient>
<linearGradient id="linear2" gradientUnits="userSpaceOnUse" x1="179.916672" y1="159.416672" x2="179.916672" y2="-94.583336" gradientTransform="matrix(3.779528,0,0,3.779528,40.000015,812.59845)">
<stop offset="0" style="stop-color:rgb(95.686275%,26.274511%,21.176471%);stop-opacity:1;"/>
<stop offset="1" style="stop-color:rgb(93.725491%,32.549021%,31.37255%);stop-opacity:1;"/>
</linearGradient>
<linearGradient id="linear3" gradientUnits="userSpaceOnUse" x1="179.916672" y1="159.416672" x2="179.916672" y2="-94.583336" gradientTransform="matrix(0.0468795,0,0,0.0468795,6.945975,10.079087)">
<stop offset="0" style="stop-color:rgb(95.686275%,26.274511%,21.176471%);stop-opacity:1;"/>
<stop offset="1" style="stop-color:rgb(93.725491%,32.549021%,31.37255%);stop-opacity:1;"/>
</linearGradient>
<linearGradient id="linear4" gradientUnits="userSpaceOnUse" x1="338.666656" y1="159.416672" x2="338.666656" y2="-94.583336" gradientTransform="matrix(0.0468795,0,0,0.0468795,0,10.079087)">
<stop offset="0" style="stop-color:rgb(89.803922%,45.09804%,45.09804%);stop-opacity:1;"/>
<stop offset="1" style="stop-color:rgb(93.725491%,60.392159%,60.392159%);stop-opacity:1;"/>
</linearGradient>
</defs>
<g id="surface1">
<path style=" stroke:none;fill-rule:nonzero;fill:url(#linear0);" d="M 4.464844 20.953125 L 19.347656 20.953125 L 19.347656 22.054688 L 4.464844 22.054688 Z M 4.464844 20.953125 "/>
<path style=" stroke:none;fill-rule:nonzero;fill:url(#radial0);" d="M 19.347656 21.027344 L 21.335938 21.027344 L 21.335938 20.03125 L 19.347656 20.03125 Z M 19.347656 21.027344 "/>
<path style=" stroke:none;fill-rule:nonzero;fill:url(#radial1);" d="M 4.464844 21.027344 L 2.480469 21.027344 L 2.480469 22.019531 L 4.464844 22.019531 Z M 4.464844 21.027344 "/>
<path style=" stroke:none;fill-rule:nonzero;fill:url(#radial2);" d="M 4.464844 21.027344 L 2.480469 21.027344 L 2.480469 20.03125 L 4.464844 20.03125 Z M 4.464844 21.027344 "/>
<path style=" stroke:none;fill-rule:nonzero;fill:url(#radial3);" d="M 19.347656 21.027344 L 21.335938 21.027344 L 21.335938 22.019531 L 19.347656 22.019531 Z M 19.347656 21.027344 "/>
<path style=" stroke:none;fill-rule:nonzero;fill:url(#linear1);" d="M 3.472656 2.171875 L 20.339844 2.171875 C 20.890625 2.171875 21.335938 2.617188 21.335938 3.164062 L 21.335938 20.03125 C 21.335938 20.582031 20.890625 21.027344 20.339844 21.027344 L 3.472656 21.027344 C 2.925781 21.027344 2.480469 20.582031 2.480469 20.03125 L 2.480469 3.164062 C 2.480469 2.617188 2.925781 2.171875 3.472656 2.171875 Z M 3.472656 2.171875 "/>
<path style=" stroke:none;fill-rule:nonzero;fill:rgb(90.196079%,90.196079%,90.196079%);fill-opacity:0.392157;" d="M 3.472656 2.171875 C 2.921875 2.171875 2.480469 2.613281 2.480469 3.164062 L 2.480469 3.289062 C 2.480469 2.738281 2.921875 2.296875 3.472656 2.296875 L 20.339844 2.296875 C 20.890625 2.296875 21.335938 2.738281 21.335938 3.289062 L 21.335938 3.164062 C 21.335938 2.613281 20.890625 2.171875 20.339844 2.171875 Z M 3.472656 2.171875 "/>
<path style=" stroke:none;fill-rule:nonzero;fill:rgb(0%,0%,0%);fill-opacity:0.196078;" d="M 3.472656 21.027344 C 2.921875 21.027344 2.480469 20.582031 2.480469 20.03125 L 2.480469 19.910156 C 2.480469 20.457031 2.921875 20.902344 3.472656 20.902344 L 20.339844 20.902344 C 20.890625 20.902344 21.335938 20.457031 21.335938 19.910156 L 21.335938 20.03125 C 21.335938 20.582031 20.890625 21.027344 20.339844 21.027344 Z M 3.472656 21.027344 "/>
<path style="fill:none;stroke-width:3;stroke-linecap:round;stroke-linejoin:miter;stroke:rgb(12.941177%,12.941177%,12.941177%);stroke-opacity:1;stroke-miterlimit:4;" d="M 74.076259 -168.671091 L 433.875234 -168.671091 C 445.624112 -168.671091 455.123205 -159.171998 455.123205 -147.506445 L 455.123205 212.292529 C 455.123205 224.041407 445.624112 233.5405 433.875234 233.5405 L 74.076259 233.5405 C 62.410707 233.5405 52.911614 224.041407 52.911614 212.292529 L 52.911614 -147.506445 C 52.911614 -159.171998 62.410707 -168.671091 74.076259 -168.671091 Z M 74.076259 -168.671091 " transform="matrix(0.0468795,0,0,0.0468795,0,10.079087)"/>
<path style="fill-rule:nonzero;fill:url(#linear2);stroke-width:11.338583;stroke-linecap:butt;stroke-linejoin:miter;stroke:rgb(12.941177%,12.941177%,12.941177%);stroke-opacity:1;stroke-miterlimit:4;" d="M 599.94274 455.074677 L 599.94274 1414.98306 L 601.202462 1414.98306 C 664.188577 1388.528892 730.638927 1369.003197 799.923653 1356.720905 L 799.923653 455.074677 Z M 599.94274 455.074677 " transform="matrix(0.0124035,0,0,0.0124035,0,0)"/>
<path style=" stroke:none;fill-rule:nonzero;fill:url(#linear3);" d="M 13.890625 5.644531 L 13.890625 16.828125 C 14.75 16.980469 15.578125 17.222656 16.355469 17.550781 L 16.371094 17.550781 L 16.371094 5.644531 Z M 13.890625 5.644531 "/>
<path style=" stroke:none;fill-rule:nonzero;fill:rgb(100%,100%,100%);fill-opacity:0.392157;" d="M 13.890625 5.707031 L 13.890625 5.957031 L 16.371094 5.957031 L 16.371094 5.707031 Z M 13.890625 5.707031 "/>
<path style="fill:none;stroke-width:11.338583;stroke-linecap:butt;stroke-linejoin:miter;stroke:rgb(12.941177%,12.941177%,12.941177%);stroke-opacity:1;stroke-miterlimit:4;" d="M 1119.893114 455.074677 L 1119.893114 1356.720905 C 1189.17784 1369.003197 1255.943122 1388.528892 1318.614305 1414.98306 L 1319.874028 1414.98306 L 1319.874028 455.074677 Z M 1119.893114 455.074677 " transform="matrix(0.0124035,0,0,0.0124035,0,0)"/>
<path style=" stroke:none;fill-rule:nonzero;fill:url(#linear4);" d="M 7.441406 5.644531 L 13.464844 16.761719 C 14.476562 16.898438 15.449219 17.167969 16.355469 17.550781 L 16.371094 17.550781 L 9.921875 5.644531 Z M 7.441406 5.644531 "/>
<path style=" stroke:none;fill-rule:nonzero;fill:rgb(100%,100%,100%);fill-opacity:0.392157;" d="M 7.441406 5.71875 L 7.578125 5.96875 L 9.921875 5.96875 L 16.203125 17.5625 C 16.253906 17.582031 16.304688 17.605469 16.355469 17.625 L 16.371094 17.625 L 9.921875 5.71875 Z M 7.441406 5.71875 "/>
<path style=" stroke:none;fill-rule:nonzero;fill:rgb(0%,0%,0%);fill-opacity:0.235294;" d="M 9.921875 10.226562 L 9.921875 10.574219 L 13.464844 17.113281 C 13.613281 17.132812 13.761719 17.15625 13.90625 17.183594 C 13.953125 17.191406 14 17.199219 14.042969 17.207031 C 14.050781 17.210938 14.0625 17.210938 14.070312 17.214844 C 14.113281 17.222656 14.160156 17.230469 14.203125 17.238281 C 14.207031 17.238281 14.210938 17.242188 14.214844 17.242188 C 14.265625 17.25 14.3125 17.261719 14.359375 17.273438 C 14.367188 17.273438 14.371094 17.273438 14.378906 17.277344 C 14.425781 17.285156 14.472656 17.296875 14.519531 17.308594 C 14.527344 17.308594 14.535156 17.3125 14.542969 17.3125 C 14.589844 17.324219 14.636719 17.335938 14.683594 17.347656 C 14.6875 17.347656 14.691406 17.347656 14.691406 17.347656 C 14.738281 17.359375 14.785156 17.371094 14.832031 17.386719 C 14.839844 17.386719 14.84375 17.386719 14.847656 17.390625 C 14.894531 17.402344 14.941406 17.414062 14.988281 17.425781 C 14.996094 17.429688 15.003906 17.429688 15.007812 17.433594 C 15.054688 17.445312 15.101562 17.460938 15.148438 17.472656 C 15.152344 17.472656 15.160156 17.476562 15.164062 17.476562 C 15.214844 17.492188 15.261719 17.507812 15.308594 17.519531 C 15.355469 17.535156 15.402344 17.550781 15.445312 17.566406 C 15.453125 17.566406 15.460938 17.570312 15.46875 17.574219 C 15.511719 17.585938 15.558594 17.601562 15.601562 17.617188 C 15.609375 17.621094 15.617188 17.621094 15.628906 17.625 C 15.671875 17.640625 15.714844 17.65625 15.757812 17.671875 C 15.765625 17.671875 15.769531 17.675781 15.773438 17.675781 C 15.816406 17.691406 15.859375 17.707031 15.902344 17.722656 C 15.910156 17.726562 15.914062 17.726562 15.917969 17.730469 C 15.960938 17.746094 16.003906 17.761719 16.050781 17.78125 C 16.058594 17.78125 16.066406 17.785156 16.074219 17.789062 C 16.117188 17.804688 16.160156 17.820312 16.203125 17.839844 C 16.210938 17.84375 16.21875 17.84375 16.226562 17.847656 C 16.269531 17.867188 16.3125 17.886719 16.355469 17.902344 L 16.371094 17.902344 L 16.371094 17.550781 L 16.355469 17.550781 C 16.3125 17.535156 16.269531 17.515625 16.226562 17.496094 C 16.21875 17.496094 16.210938 17.492188 16.203125 17.488281 C 16.160156 17.472656 16.117188 17.453125 16.074219 17.4375 C 16.066406 17.433594 16.058594 17.429688 16.050781 17.429688 C 16.003906 17.410156 15.960938 17.394531 15.917969 17.378906 C 15.914062 17.375 15.910156 17.375 15.902344 17.371094 C 15.859375 17.355469 15.816406 17.339844 15.773438 17.324219 C 15.769531 17.324219 15.765625 17.320312 15.757812 17.320312 C 15.714844 17.304688 15.671875 17.289062 15.628906 17.273438 C 15.617188 17.269531 15.609375 17.269531 15.601562 17.265625 C 15.558594 17.25 15.511719 17.234375 15.46875 17.222656 C 15.460938 17.21875 15.453125 17.214844 15.445312 17.214844 C 15.402344 17.199219 15.355469 17.183594 15.308594 17.167969 C 15.261719 17.15625 15.214844 17.140625 15.164062 17.128906 C 15.160156 17.125 15.152344 17.125 15.148438 17.121094 C 15.101562 17.109375 15.054688 17.09375 15.007812 17.082031 C 15.003906 17.078125 14.996094 17.078125 14.988281 17.074219 C 14.941406 17.0625 14.894531 17.050781 14.847656 17.039062 C 14.84375 17.035156 14.839844 17.035156 14.832031 17.035156 C 14.785156 17.023438 14.738281 17.011719 14.691406 17 C 14.691406 16.996094 14.6875 16.996094 14.683594 16.996094 C 14.636719 16.984375 14.589844 16.972656 14.542969 16.960938 C 14.535156 16.960938 14.527344 16.957031 14.519531 16.957031 C 14.472656 16.945312 14.425781 16.933594 14.378906 16.925781 C 14.371094 16.921875 14.367188 16.921875 14.359375 16.921875 C 14.3125 16.910156 14.265625 16.898438 14.214844 16.890625 C 14.210938 16.890625 14.207031 16.886719 14.203125 16.886719 C 14.160156 16.878906 14.113281 16.871094 14.070312 16.863281 C 14.0625 16.859375 14.050781 16.859375 14.042969 16.855469 C 14 16.847656 13.953125 16.839844 13.90625 16.832031 C 13.761719 16.804688 13.613281 16.785156 13.464844 16.761719 Z M 9.921875 16.828125 C 9.0625 16.980469 8.238281 17.222656 7.457031 17.550781 L 7.441406 17.550781 L 7.441406 17.902344 L 7.457031 17.902344 C 8.238281 17.574219 9.0625 17.328125 9.921875 17.179688 Z M 9.921875 16.828125 "/>
<path style="fill:none;stroke-width:11.338583;stroke-linecap:butt;stroke-linejoin:miter;stroke:rgb(12.941177%,12.941177%,12.941177%);stroke-opacity:1;stroke-miterlimit:4;" d="M 599.94274 455.074677 L 1085.565682 1351.367085 C 1167.1327 1362.389655 1245.550413 1384.119864 1318.614305 1414.98306 L 1319.874028 1414.98306 L 799.923653 455.074677 Z M 599.94274 455.074677 " transform="matrix(0.0124035,0,0,0.0124035,0,0)"/>
</g>
</svg>
